assets/svg/1F51E.svg

<svg xmlns="http://www.w3.org/2000/svg" viewBox="0 0 64 64" enable-background="new 0 0 64 64"><circle fill="#25333a" cx="31.828" cy="31.824" r="27.847"/><path fill="#be1e2d" d="M31.828,0C14.279,0,0,14.279,0,31.828c0,17.549,14.279,31.828,31.828,31.828   c17.55,0,31.829-14.279,31.829-31.828C63.657,14.279,49.378,0,31.828,0z M31.828,55.768c-13.201,0-23.939-10.738-23.939-23.939   S18.627,7.887,31.828,7.887c13.2,0,23.938,10.74,23.938,23.941S45.028,55.768,31.828,55.768z"/><g fill="#fff"><path d="m21.236 15.292l-5.402.127c-1.266.045-2.179 1.103-2.179 2.511 0 1.338.962 2.394 2.288 2.394l3.682-.129h.159c.466 0 .555 0 .555.757v26.04c0 1.396.882 2.265 2.314 2.265 1.43 0 2.355-.903 2.355-2.304v-27.17c-.0001-3.358-.955-4.493-3.772-4.493"/><path d="m46.77 31.14c2.891-1.283 4.357-3.822 4.357-7.578 0-5.24-4.369-8.898-10.617-8.898-6.396 0-10.532 3.541-10.532 9.03 0 3.617 1.538 6.21 4.364 7.46-3.444 1.24-5.58 4.437-5.58 8.54 0 6.284 4.378 10.03 11.708 10.03 7.382 0 11.791-3.771 11.791-10.08.0001-4.152-2.061-7.284-5.491-8.508m-6.26-12.12c3.658 0 6.02 1.966 6.02 5 0 3.245-2.253 5.172-6.02 5.172s-6.02-1.927-6.02-5.172c0-3.037 2.362-5 6.02-5m0 26.22c-4.41 0-7.04-2.167-7.04-5.804 0-3.575 2.698-5.797 7.04-5.797 4.343 0 7.04 2.222 7.04 5.797 0 3.637-2.633 5.804-7.04 5.804"/></g><path fill="#be1e2d" d="m51.655 48.787c-12.26-12.259-24.527-24.527-36.793-36.793-5.459-5.461-8.325-2.588-2.868 2.868 12.268 12.268 24.532 24.532 36.794 36.792 5.461 5.461 8.328 2.594 2.867-2.867"/></svg>

<?xml version="1.0" encoding="UTF-8" standalone="no"?>
<!-- Generator: Adobe Illustrator 16.0.0, SVG Export Plug-In . SVG Version: 6.00 Build 0)  -->

<svg
   xmlns:dc="http://purl.org/dc/elements/1.1/"
   xmlns:cc="http://creativecommons.org/ns#"
   xmlns:rdf="http://www.w3.org/1999/02/22-rdf-syntax-ns#"
   xmlns:svg="http://www.w3.org/2000/svg"
   xmlns="http://www.w3.org/2000/svg"
   xmlns:sodipodi="http://sodipodi.sourceforge.net/DTD/sodipodi-0.dtd"
   xmlns:inkscape="http://www.inkscape.org/namespaces/inkscape"
   version="1.1"
   id="Layer_1"
   x="0px"
   y="0px"
   width="64px"
   height="64px"
   viewBox="0 0 64 64"
   enable-background="new 0 0 64 64"
   xml:space="preserve"
   inkscape:version="0.48.5 r10040"
   sodipodi:docname="1F51E.svg"
   inkscape:export-filename="D:\TESTINGEMOJI\SVGTEST\1F51E.png"
   inkscape:export-xdpi="90"
   inkscape:export-ydpi="90"><metadata
   id="metadata3773"><rdf:RDF><cc:Work
       rdf:about=""><dc:format>image/svg+xml</dc:format><dc:type
         rdf:resource="http://purl.org/dc/dcmitype/StillImage" /><dc:title></dc:title></cc:Work></rdf:RDF></metadata><defs
   id="defs3771" /><sodipodi:namedview
   pagecolor="#ffffff"
   bordercolor="#666666"
   borderopacity="1"
   objecttolerance="10"
   gridtolerance="10"
   guidetolerance="10"
   inkscape:pageopacity="0"
   inkscape:pageshadow="2"
   inkscape:window-width="640"
   inkscape:window-height="480"
   id="namedview3769"
   showgrid="false"
   inkscape:zoom="3.6875"
   inkscape:cx="32"
   inkscape:cy="32"
   inkscape:window-x="644"
   inkscape:window-y="347"
   inkscape:window-maximized="0"
   inkscape:current-layer="Layer_1" />
<g
   id="g3757">
	<circle
   fill="#25333A"
   cx="31.828"
   cy="31.824"
   r="27.847"
   id="circle3759" />
	<path
   fill="#BE1E2D"
   d="M31.828,0C14.279,0,0,14.279,0,31.828c0,17.549,14.279,31.828,31.828,31.828   c17.55,0,31.829-14.279,31.829-31.828C63.657,14.279,49.378,0,31.828,0z M31.828,55.768c-13.201,0-23.939-10.738-23.939-23.939   S18.627,7.887,31.828,7.887c13.2,0,23.938,10.74,23.938,23.941S45.028,55.768,31.828,55.768z"
   id="path3761" />
	<path
   fill="#FFFFFF"
   d="M21.236,15.292l-5.402,0.127c-1.266,0.045-2.179,1.103-2.179,2.511c0,1.338,0.962,2.394,2.288,2.394   l3.682-0.129h0.159c0.466,0,0.555,0,0.555,0.757v26.042c0,1.396,0.882,2.265,2.314,2.265c1.43,0,2.355-0.903,2.355-2.304V19.785   C25.007,16.427,24.053,15.292,21.236,15.292z"
   id="path3763" />
	<path
   fill="#FFFFFF"
   d="M46.77,31.136c2.891-1.283,4.357-3.822,4.357-7.578c0-5.24-4.369-8.898-10.617-8.898   c-6.396,0-10.532,3.541-10.532,9.027c0,3.617,1.538,6.21,4.364,7.46c-3.444,1.24-5.58,4.437-5.58,8.54   c0,6.284,4.378,10.034,11.708,10.034c7.382,0,11.791-3.771,11.791-10.077C52.262,35.492,50.2,32.36,46.77,31.136z M40.51,19.016   c3.658,0,6.021,1.966,6.021,5.003c0,3.245-2.253,5.172-6.021,5.172s-6.016-1.927-6.016-5.172   C34.494,20.982,36.856,19.016,40.51,19.016z M40.51,45.236c-4.41,0-7.039-2.167-7.039-5.804c0-3.575,2.698-5.797,7.039-5.797   c4.343,0,7.042,2.222,7.042,5.797C47.552,43.069,44.919,45.236,40.51,45.236z"
   id="path3765" />
	<path
   fill="#BE1E2D"
   d="M51.655,48.787C39.395,36.528,27.128,24.26,14.862,11.994c-5.459-5.461-8.325-2.588-2.868,2.868   C24.262,27.13,36.526,39.394,48.788,51.654C54.249,57.115,57.116,54.248,51.655,48.787z"
   id="path3767" />
</g>
</svg>
